X:1
T:Eternal Empire - Pad
M:4/4
L:1/1
Q:1/4=95
K:Dm
%%MIDI program 92
% Bars 126-150: Warm atmospheric bed, sunset glow
[D,A,D]4 | [D,A,D]4 | [G,,D,G,]4 | [A,,E,A,]4 |
[D,A,D]4 | [D,A,D]4 | [G,,D,G,]4 | [A,,E,A,]4 |
[D,A,D]4 | [D,A,D]4 | [G,,D,G,]4 | [A,,E,A,]4 |
% Transition to major
[D,A,D]4 | [D,A,^F]4 | [G,,D,G,]4 | [A,,E,^C]4 |
% D major - eternal peace
K:D
[D,A,D]4 | [D,A,^F]4 | [G,,D,G,]4 | [A,,E,^C]4 |
[D,A,D]4 | [D,A,^F]4 | [A,,E,^C]4 | [D,A,D]4 |
[D,A,D]4 |
